X: 222
%
U:~=!turn!
T: Haste to the Wedding
C:
O:Scotland
B:Keith Norman MacDonald : "The Skye collection of the best reels & strathspeys extant" : 1887
Z:Ralph Palmer
R:Jig
N:Country Dance
M:6/8
L:1/8
K:D
B | AFA (Aa)f | {gf}ede TfdB | AFA (Ad)F | TEFE E2 A | AFA (Aa)f |
{gf}ede TfdB | AFA faf | ddd d2 :: (fg) | afa afa | bgb bgb |
afa agf | efe e2 (f/g/) | {/^g}a3 Tf3 | {gf}ede TfdB | AFA faf | ded d2 :|


